!!!COM: Gomółka, Mikołaj
!!!CDT: ~1535-after 1591
!!!OTL: Bóg wszechmogący
!!!OTL@LAT: Deus noster
!!!AGn: Motet; Psalm
!!!SCn: Gom2046
!!!voices: 4
!!!CNT: Polish
!!!OCY: Poland
!!!LYR: Jan Kochanowski (1530-1584/08/22)
!!!GTL: Melodiae na Psałterz Polski
!!!EFL: 46/150
!!!PPR: Łazarz Andrysowicz
!!!PPP: Kraków
!!!PDT: 1580
!!!YEC: 2015 Marcin Konik
!!!ENC: Marcin Konik
!!!END: 2015/05/19
!!!EED: Marcin Konik
!!!EEV: 2015/05/19
!!!ONB: Translated from MusicXML and edited on 2015/03/06 by Marcin Konik
!!!CharacterEncoding: utf-8
!!muse2ps: i2I150v85,85,85,150Q16
**kern	**kern	**kern	**kern
*staff4	*staff3	*staff2	*staff1
*Ivox	*Ivox	*Ivox	*Ivox
*I"Bassus	*I"Tenor	*I"Altus	*I"Cantus
*I'B	*I'T	*I'A	*I'C
*clefF3	*clefC3	*clefC2	*clefG2
*k[b-]	*k[b-]	*k[b-]	*k[b-]
*M2/1	*M2/1	*M2/1	*M2/1
*met(C|)	*met(C|)	*met(C|)	*met(C|)
=1-	=1-	=1-	=1-
1G	1g	1d	1g
2G	2g	2d	2b-
2A	4f	4a	2cc
.	4e-	4g	.
=2	=2	=2	=2
1.B-	1.d	1.f	1.dd
2BB-	2d	2f	2dd
=3	=3	=3	=3
2BB-	2d	2b-	2ff
2C	4c	2g	2ee-
.	4B-	.	.
2D	2A	2f#	2dd
2G	2B-	2g	2dd
=4	=4	=4	=4
2G	4B-	2g	2dd
.	4c	.	.
2G	4d	2g	2b-
.	8c	.	.
.	8d	.	.
1E-	2e-	2.b-	2.ee-
.	[2e-	.	.
.	.	4a	4dd
=5	=5	=5	=5
2E-	2e-]	2g	2cc
2BB-	2d	2f	2b-
2E-	2c	2g	2b-
2F	2c	2f	2a
=6	=6	=6	=6
2G	2B-	2d	2b-
2G	2d	2g	2b-
2D	2f	2f	2.b-
2E-	2e-	4g	.
.	.	4a	4cc
=7	=7	=7	=7
2BB-	1d	2b-	2.dd
4B-	.	2f	.
4A	.	.	4cc
4G	2d	2g	2b-
4F	.	.	.
[2E-	4c	2g	4ee-
.	4B-	.	4dd
=8	=8	=8	=8
2E-]	1c	2g	4cc
.	.	.	2b-
2F	.	4f	.
.	.	4e-	4a
2BB-	2B-	2d	2b-
2BB-	2d	2B-	2f
=9	=9	=9	=9
2F	2f	2c	2a
2C	2e-	2c	4g
.	.	.	4a
2G	2.d	4d	2b-
.	.	4e	.
2D	.	2f	[2a
.	4c	.	.
=10	=10	=10	=10
2E-	2B-	2e-	4a]
.	.	.	4g
2C	2c	2e-	1g
1D	1A	2.d	.
.	.	.	2f#
.	.	4c	.
=11	=11	=11	=11
0G	0G	0B	0g
==	==	==	==
*-	*-	*-	*-
